src/assets/logos/innogy.svg

<svg height="233" viewBox="0 0 155 233" width="155" xmlns="http://www.w3.org/2000/svg"><path d="m87.2815102 70.7538338c.1014038.0593381.2023861.1194423.3029296.1803252 5.5281893 3.5911111 7.9441687 10.5944139 7.3193464 16.9680415-.0057246 20.0067695.0005951 40.0200375-.0053556 60.0268075.1190137 4.476998-1.8746513 8.781759-4.7726364 12.111266-4.5344244 4.304577-11.4844532 6.230381-17.4708455 4.066202-6.7183269-1.991759-11.532624-8.603208-11.6456871-15.547609.0059507-21.201824.017257-42.403465-.0065458-63.6052897-.0892603-4.619691 2.0295596-9.1206553 5.2012764-12.4085434 3.2803109-2.9296748 7.6723888-4.5747129 12.0631576-4.5446284h-.0001845c1.2815268.0087877 2.5624833.1601608 3.8160925.4641058 1.5901857-3.0418452 4.7283009-4.8861793 6.9759079-7.423045 2.8447445-3.2412203 5.9415551-6.5118 7.2258912-10.698377-6.9198111.5636906-12.9033772 4.2159359-19.199025 6.6996975-6.3916729 2.8184524-13.0834243 5.9304941-20.2973142 5.1554196-1.4763864-.9336126-2.7727257-2.0962244-3.7629849-3.511322-.0600157-2.289993-.0779004-5.7432438.7019437-7.3283593 1.7774553-2.3317061.5283783-.3988992.5763909-.7335905 2.1125529-2.7186327 8.8567359-12.5521973 11.7254867-14.6249346 2.536996 1.5970035.9763716.8681105 2.536996 1.5970035-1.1222937 1.6029951-6.6224813 10.1859911-7.6787577 11.8359604-.9717504 1.1969148-1.0625181 1.1922584-1.7824666 2.3193519-.4321149 1.7321742-.6841808 3.4995791-.8162154 5.2787275 4.1290825-.0822049 8.0000957-1.6675847 11.7930884-3.10617 3.901021-1.8848404 7.9640845-3.4173742 11.9191196-5.1789073 5.089332-2.0198913 10.2266766-4.7150369 15.9101642-4.1807052 1.2081222.1824949 2.2010284.4401778 2.8105654 1.0267331.634726.610794 1.10034 1.6229298 1.252708 2.5374238.072019 2.0433784.047833 4.2335629-.852433 6.1595057-.834218 1.8496098-1.8106619 3.4883875-2.8631994 5.3238169-.744891.8718702-.8439109.9742681-1.5419536 1.745802-3.1486723 3.1205105-5.9801028 6.573572-9.4354598 9.3952915zm-9.6623856-70.75383174c2.4962373.0011044 4.9890991.45112362 7.2777123 1.45940905 4.8962902 1.89304618 8.5945996 6.09063748 10.6938617 10.79348809 2.6717881 6.4768372 1.5144387 14.4415468-3.2148648 19.6801651-3.9778631 5.1790886-10.8664426 7.7331008-17.2894689 6.9175432-8.7966238-.9941469-16.1973415-8.6798102-16.9726372-17.4664019-1.0913777-9.42356 5.8031614-18.89474401 15.053035-20.92470861 1.4559158-.29913701 2.9546159-.46016166 4.4523619-.45949493zm-.5246306 4.96329322c-.5436493.0148472-1.0870898.06343634-1.6260694.14603363-3.7691296.56553267-7.2219923 2.67214219-9.6194451 5.60695909-3.3397351 4.4409196-3.6858211 10.8053938-1.1452369 15.7046926 2.0575154 3.9468227 6.1548396 6.607617 10.4786039 7.4291276 4.5503891.8215106 9.3031781-.9645678 12.619058-4.0898799 5.6775498-5.3338659 5.6415761-15.6382806-.3401281-20.73402754-2.7239715-2.64609757-6.5612258-4.16683871-10.3667824-4.06290548zm.634303 67.86415212h.0000417c-.671553.0115166-1.3435524.0839809-2.0092856.2229581-5.4865345 1.0642531-9.9675931 6.2307502-9.8307272 11.8790209-.0119014 21.0115676-.0065458 42.0177416-.0065458 63.0293096-.0416548 2.134451.5478382 4.256828 1.60111 6.111839 2.8860838 5.10722 9.7589441 7.592281 15.1621689 5.101096 4.3559038-1.908521 7.528174-6.438476 7.4746178-11.230588-.0059507-19.816512-.0059507-39.633024 0-59.4554815-.0119014-2.8479176.314833-5.8805158-1.1668883-8.4668292-1.8744668-4.3439662-6.5235966-7.2719643-11.2244915-7.1913249zm-76.96216215 115.8167576c1.57839976-.906623 3.90215496-1.052131 4.80644643.861852.95909708 1.281585.12057221 2.759046-.73439427 3.811177-.60286102.218261-1.20024149.447715-1.79762195.682766-1.06322762-.414137-2.40048297-.733134-2.8334468-1.958755-.55901658-1.152867.14249442-2.339312.55901659-3.39704zm15.00289875 13.554562c3.5386111-2.702882 8.2368346-3.743817 12.6182568-2.927629 3.1261716.579611 6.0431348 2.779769 6.9576745 5.861174.8248789 2.383504.5977384 4.932612.6395801 7.410747-.0418417 3.625529.1195476 7.256973-.1195477 10.882502-1.4106626.786616-2.9588049.721558-4.3694674-.011828-.310824-4.796582.1315024-9.622735-.2450728-14.413402-.1673667-2.395333-1.6975769-4.684207-4.1004851-5.352535-3.6641362-1.029106-7.8483047.141946-10.579969 2.738369-1.2253637 1.135566-.9623588 2.903972-.9743136 4.400316-.0239095 4.211056.1195477 8.428025-.0836833 12.63908-1.41664.75113-2.9588049.792531-4.3515353-.035486-.0358643-.490895-.1135703-1.460858-.155412-1.945839.0298869-1.194709.0418417-2.383504.0537965-3.566385.1374798-6.056349-.2928918-12.14227.1374798-18.174962 1.1835219.011829 2.3610665.059144 3.5386111.14786.3765752.762958.7232634 1.54366 1.0340874 2.348018zm28.0026681-.030312c3.4802875-2.809011 8.2664316-3.625858 12.633264-2.938296 2.7734495.51714 5.4211037 2.191969 6.5592356 4.801177 1.3058566 3.232126.9823876 6.769835 1.0183286 10.172383-.0419312 2.979433.1317837 5.958866-.1377739 8.932422-.3773806.211557-1.1381319.646425-1.5155125.863859-1.0482794-.164545-2.8093887-.246817-2.8453297-1.633693-.1198034-4.095986.0479213-8.197848-.0479214-12.293833-.0539115-2.244859-.8326351-4.760041-2.9771152-5.894224-3.3485038-1.762978-7.5116705-.887365-10.5906168 1.022528-1.0123383.752204-2.2043818 1.715965-2.2103719 3.073458-.107823 4.989228.1317837 9.984332-.1257935 14.967683-1.4196698.769834-2.9651331.799217-4.3788128-.005876-.2575772-7.809993-.1257935-15.643492-.071882-23.459361 1.9647751-.399608 4.5824784-.094026 4.6903015 2.391773zm38.6531264-3.165339c2.6904476.051414 5.3644901.738989 7.6492532 2.110756 3.6858425 2.20635 6.0971267 6.319672 5.9158558 10.496183.1450168 3.899997-2.1265378 7.586848-5.2625251 9.966019-5.9698564 3.744458-15.0757002 3.254263-19.7585329-2.195364-2.6465558-2.93796-3.5959623-7.160199-2.5566756-10.893136.9849055-4.320528 4.8104777-7.77119 9.2334887-8.900288 1.5453409-.416931 3.1648638-.61499 4.7791359-.58417zm-.3587654 3.859672v.000029c-.3672549-.001441-.7337727.016533-1.0970699.053977-2.9728434.426293-5.9887388 1.929479-7.3301437 4.613968-1.0513715 2.442539-1.0995171 5.271045-.1085693 7.748148 2.8822081 5.472669 11.9095011 6.285643 15.9216313 1.573386 2.8096996-3.197191 2.5077687-8.232047-.4106935-11.262177-1.7976035-1.764211-4.4044006-2.717423-6.9751549-2.727331zm29.2317473-4.859716h.000012c2.924209-.062571 5.847718.829415 8.063897 2.801881.635277-.737095 1.036882-1.916264 2.120933-2.05189.810124-.106142 1.631904.017325 2.447856.064499.139866 6.586682.017835 13.172999.052804 19.759681.064111 4.304636-1.230304 9.146425-4.989512 11.623065-3.048164 2.193595-6.952891 1.82763-10.47897 1.686108-2.546936-.365599-5.263077-1.261358-7.005718-3.266257-.874234-1.208836-.186316-2.636401.507243-3.721405.338037-.112038 1.008826-.330219 1.346863-.442257 3.61933 3.449605 9.657195 4.829447 13.859348 1.680577 1.661046-1.544952 2.080317-3.962258 2.278477-6.138163-5.152155 4.145423-13.85953 3.502311-18.03837-1.792981-2.5527643-3.54985-3.2284776-8.443979-1.5208064-12.518641 1.6064054-4.824288 6.4822554-7.579927 11.3559434-7.684217zm-.381568 3.875275c-1.433745.495327-2.943256.896307-4.167184 1.827995-3.904914 2.871723-4.307429 9.422842-.78135 12.754512 2.273009 1.957713 5.543194 2.694455 8.428167 1.921979 2.168101-.448154 4.411422-1.710244 5.122466-3.962807.192331-2.700716.012385-5.424471.076495-8.131085-1.696014-3.154767-5.298222-4.451872-8.678594-4.410594zm-109.28778618-2.63458c1.03109256-.175853 2.06794542-.254684 3.10479827-.242556.21889116.224365.65091318.673094.86980434.903522.72579695 4.638888.20161028 9.374799.35713821 14.062198-.0921647 3.092592.31681609 6.251887-.4550632 9.28384-1.06565432.363834-2.43660421 1.321931-3.41009384.272876-.725797-.485113-1.1750999-1.291612-1.06565432-2.207262-.02880147-6.282207.01728088-12.570477-.01728088-18.852684-.08640441-1.121822.28801468-2.176942.61635142-3.219934zm148.38322718.679793c1.323781-.776139 2.818944-.96867 4.320017-.800206.165473.360995.496418 1.076968.6678 1.437963-3.327181 7.099567-6.92621 14.066769-10.135196 21.220484-2.174783 4.085259-4.089537 9.097072-8.69913 10.883997-2.795305.661824-6.719369.577592-8.143616-2.478832-.200931-1.528212 1.004655-2.629246 2.23979-3.200821 1.542441 1.101034 3.56357 2.250201 5.35422.956636 1.542441-1.221366 3.203077-3.04439 3.262174-5.090028-3.173528-7.382346-6.943939-14.487929-10.353856-21.761976-.992836-1.817008 1.359239-2.334434 2.659381-1.991489 2.925319.180497 3.498563 3.543767 4.668691 5.673637 1.77883 4.578618 4.160453 8.880474 5.992471 13.441043 2.878041-6.028615 5.247845-12.28586 8.167254-18.290408z"/></svg>

<svg xmlns="http://www.w3.org/2000/svg" width="155" height="233" viewBox="0 0 155 233">
  <path d="M87.2815102,70.7538338 C87.382914,70.8131719 87.4838963,70.8732761 87.5844398,70.934159 C93.1126291,74.5252701 95.5286085,81.5285729 94.9037862,87.9022005 C94.8980616,107.90897 94.9043813,127.922238 94.8984306,147.929008 C95.0174443,152.406006 93.0237793,156.710767 90.1257942,160.040274 C85.5913698,164.344851 78.641341,166.270655 72.6549487,164.106476 C65.9366218,162.114717 61.1223247,155.503268 61.0092616,148.558867 C61.0152123,127.357043 61.0265186,106.155402 61.0027158,84.9535773 C60.9134555,80.3338863 63.0322754,75.832922 66.2039922,72.5450339 C69.4843031,69.6153591 73.876381,67.970321 78.2671498,68.0004055 L78.2669653,68.0004055 C79.5484921,68.0091932 80.8294486,68.1605663 82.0830578,68.4645113 C83.6732435,65.4226661 86.8113587,63.578332 89.0589657,61.0414663 C91.9037102,57.800246 95.0005208,54.5296663 96.2848569,50.3430893 C89.3650458,50.9067799 83.3814797,54.5590252 77.0858319,57.0427868 C70.694159,59.8612392 64.0024076,62.9732809 56.7885177,62.1982064 C55.3121313,61.2645938 54.015792,60.101982 53.0255328,58.6868844 C52.9655171,56.3968914 52.9476324,52.9436406 53.7274765,51.3585251 C55.5049318,49.026819 54.2558548,50.9596259 54.3038674,50.6249346 C56.4164203,47.9063019 63.1606033,38.0727373 66.0293541,36 C68.5663501,37.5970035 67.0057257,36.8681105 68.5663501,37.5970035 C67.4440564,39.1999986 61.9438688,47.7829946 60.8875924,49.4329639 C59.915842,50.6298787 59.8250743,50.6252223 59.1051258,51.7523158 C58.6730109,53.48449 58.420945,55.2518949 58.2889104,57.0310433 C62.4179929,56.9488384 66.2890061,55.3634586 70.0819988,53.9248733 C73.9830198,52.0400329 78.0460833,50.5074991 82.0011184,48.745966 C87.0904504,46.7260747 92.227795,44.0309291 97.9112826,44.5652608 C99.1194048,44.7477557 100.112311,45.0054386 100.721848,45.5919939 C101.356574,46.2027879 101.822188,47.2149237 101.974556,48.1294177 C102.046575,50.1727961 102.022389,52.3629806 101.122123,54.2889234 C100.287905,56.1385332 99.3114611,57.7773109 98.2589236,59.6127403 C97.5140326,60.4846105 97.4150127,60.5870084 96.71697,61.3585423 C93.5682977,64.4790528 90.7368672,67.9321143 87.2815102,70.7538338 Z M77.6191246,2.06217646e-06 C80.1153619,0.00110645534 82.6082237,0.451125678 84.8968369,1.45941111 C89.7931271,3.35245729 93.4914365,7.55004859 95.5906986,12.2528992 C98.2624867,18.7297364 97.1051373,26.694446 92.3758338,31.9330643 C88.3979707,37.1121529 81.5093912,39.6661651 75.0863649,38.8506075 C66.2897411,37.8564606 58.8890234,30.1707973 58.1137277,21.3842056 C57.02235,11.9606456 63.9168891,2.48946159 73.1667627,0.459496991 C74.6226785,0.160359977 76.1213786,-0.000664673904 77.6191246,2.06217646e-06 Z M77.094494,4.96329528 C76.5508447,4.97814248 76.0074042,5.02673162 75.4684246,5.10932891 C71.699295,5.67486158 68.2464323,7.7814711 65.8489795,10.716288 C62.5092444,15.1572076 62.1631584,21.5216818 64.7037426,26.4209806 C66.761258,30.3678033 70.8585822,33.0285976 75.1823465,33.8501082 C79.7327356,34.6716188 84.4855246,32.8855404 87.8014045,29.7602283 C93.4789543,24.4263624 93.4429806,14.1219477 87.4612764,9.02620076 C84.7373049,6.38010319 80.9000506,4.85936205 77.094494,4.96329528 Z M77.728797,72.8274474 L77.7288387,72.8274474 C77.0572857,72.838964 76.3852863,72.9114283 75.7195531,73.0504055 C70.2330186,74.1146586 65.75196,79.2811557 65.8888259,84.9294264 C65.8769245,105.940994 65.8822801,126.947168 65.8822801,147.958736 C65.8406253,150.093187 66.4301183,152.215564 67.4833901,154.070575 C70.3694739,159.177795 77.2423342,161.662856 82.645559,159.171671 C87.0014628,157.26315 90.173733,152.733195 90.1201768,147.941083 C90.1142261,128.124571 90.1142261,108.308059 90.1201768,88.4856015 C90.1082754,85.6376839 90.4350098,82.6050857 88.9532885,80.0187723 C87.0788217,75.6748061 82.4296919,72.746808 77.728797,72.8274474 Z M0.766634848,188.644205 C2.34503461,187.737582 4.66878981,187.592074 5.57308128,189.506057 C6.53217836,190.787642 5.69365349,192.265103 4.83868701,193.317234 C4.23582599,193.535495 3.63844552,193.764949 3.04106506,194 C1.97783744,193.585863 0.64058209,193.266866 0.207618261,192.041245 C-0.351398321,190.888378 0.350112684,189.701933 0.766634848,188.644205 Z M15.7695336,202.198767 C19.3081447,199.495885 24.0063682,198.45495 28.3877904,199.271138 C31.513962,199.850749 34.4309252,202.050907 35.3454649,205.132312 C36.1703438,207.515816 35.9432033,210.064924 35.985045,212.543059 C35.9432033,216.168588 36.1045926,219.800032 35.8654973,223.425561 C34.4548347,224.212177 32.9066924,224.147119 31.4960299,223.413733 C31.1852059,218.617151 31.6275323,213.790998 31.2509571,209.000331 C31.0835904,206.604998 29.5533802,204.316124 27.150472,203.647796 C23.4863358,202.61869 19.3021673,203.789742 16.570503,206.386165 C15.3451393,207.521731 15.6081442,209.290137 15.5961894,210.786481 C15.5722799,214.997537 15.7157371,219.214506 15.5125061,223.425561 C14.0958661,224.176691 12.5537012,224.218092 11.1609708,223.390075 C11.1251065,222.89918 11.0474005,221.929217 11.0055588,221.444236 C11.0354457,220.249527 11.0474005,219.060732 11.0593553,217.877851 C11.1968351,211.821502 10.7664635,205.735581 11.1968351,199.702889 C12.380357,199.714718 13.5579016,199.762033 14.7354462,199.850749 C15.1120214,200.613707 15.4587096,201.394409 15.7695336,202.198767 Z M43.7722017,202.168455 C47.2524892,199.359444 52.0386333,198.542597 56.4054657,199.230159 C59.1789152,199.747299 61.8265694,201.422128 62.9647013,204.031336 C64.2705579,207.263462 63.9470889,210.801171 63.9830299,214.203719 C63.9410987,217.183152 64.1148136,220.162585 63.845256,223.136141 C63.4678754,223.347698 62.7071241,223.782566 62.3297435,224 C61.2814641,223.835455 59.5203548,223.753183 59.4844138,222.366307 C59.3646104,218.270321 59.5323351,214.168459 59.4364924,210.072474 C59.3825809,207.827615 58.6038573,205.312433 56.4593772,204.17825 C53.1108734,202.415272 48.9477067,203.290885 45.8687604,205.200778 C44.8564221,205.952982 43.6643786,206.916743 43.6583885,208.274236 C43.5505655,213.263464 43.7901722,218.258568 43.532595,223.241919 C42.1129252,224.011753 40.5674619,224.041136 39.1537822,223.236043 C38.896205,215.42605 39.0279887,207.592551 39.0819002,199.776682 C41.0466753,199.377074 43.6643786,199.682656 43.7722017,202.168455 Z M82.4253281,199.003116 C85.1157757,199.05453 87.7898182,199.742105 90.0745813,201.113872 C93.7604238,203.320222 96.171708,207.433544 95.9904371,211.610055 C96.1354539,215.510052 93.8638993,219.196903 90.727912,221.576074 C84.7580556,225.320532 75.6522118,224.830337 70.9693791,219.38071 C68.3228233,216.44275 67.3734168,212.220511 68.4127035,208.487574 C69.397609,204.167046 73.2231812,200.716384 77.6461922,199.587286 C79.1915331,199.170355 80.811056,198.972296 82.4253281,199.003116 Z M82.0665627,202.862788 L82.0665627,202.862817 C81.6993078,202.861376 81.33279,202.87935 80.9694928,202.916794 C77.9966494,203.343087 74.980754,204.846273 73.6393491,207.530762 C72.5879776,209.973301 72.539832,212.801807 73.5307798,215.27891 C76.4129879,220.751579 85.4402809,221.564553 89.4524111,216.852296 C92.2621107,213.655105 91.9601798,208.620249 89.0417176,205.590119 C87.2441141,203.825908 84.637317,202.872696 82.0665627,202.862788 Z M111.29831,198.003072 L111.298322,198.003072 C114.222531,197.940501 117.14604,198.832487 119.362219,200.804953 C119.997496,200.067858 120.399101,198.888689 121.483152,198.753063 C122.293276,198.646921 123.115056,198.770388 123.931008,198.817562 C124.070874,205.404244 123.948843,211.990561 123.983812,218.577243 C124.047923,222.881879 122.753508,227.723668 118.9943,230.200308 C115.946136,232.393903 112.041409,232.027938 108.51533,231.886416 C105.968394,231.520817 103.252253,230.625058 101.509612,228.620159 C100.635378,227.411323 101.323296,225.983758 102.016855,224.898754 C102.354892,224.786716 103.025681,224.568535 103.363718,224.456497 C106.983048,227.906102 113.020913,229.285944 117.223066,226.137074 C118.884112,224.592122 119.303383,222.174816 119.501543,219.998911 C114.349388,224.144334 105.642013,223.501222 101.463173,218.20593 C98.9104087,214.65608 98.2346954,209.761951 99.9423666,205.687289 C101.548772,200.863001 106.424622,198.107362 111.29831,198.003072 Z M110.916742,201.878347 C109.482997,202.373674 107.973486,202.774654 106.749558,203.706342 C102.844644,206.578065 102.442129,213.129184 105.968208,216.460854 C108.241217,218.418567 111.511402,219.155309 114.396375,218.382833 C116.564476,217.934679 118.807797,216.672589 119.518841,214.420026 C119.711172,211.71931 119.531226,208.995555 119.595336,206.288941 C117.899322,203.134174 114.297114,201.837069 110.916742,201.878347 Z M1.62895582,199.243767 C2.66004838,199.067914 3.69690124,198.989083 4.73375409,199.001211 C4.95264525,199.225576 5.38466727,199.674305 5.60355843,199.904733 C6.32935538,204.543621 5.80516871,209.279532 5.96069664,213.966931 C5.86853194,217.059523 6.27751273,220.218818 5.50563344,223.250771 C4.43997912,223.614605 3.06902923,224.572702 2.0955396,223.523647 C1.3697426,223.038534 0.920439698,222.232035 1.02988528,221.316385 C1.00108381,215.034178 1.04716616,208.745908 1.0126044,202.463701 C0.926199991,201.341879 1.30061908,200.286759 1.62895582,199.243767 Z M150.012183,199.92356 C151.335964,199.147421 152.831127,198.95489 154.3322,199.123354 C154.497673,199.484349 154.828618,200.200322 155,200.561317 C151.672819,207.660884 148.07379,214.628086 144.864804,221.781801 C142.690021,225.86706 140.775267,230.878873 136.165674,232.665798 C133.370369,233.327622 129.446305,233.24339 128.022058,230.186966 C127.821127,228.658754 129.026713,227.55772 130.261848,226.986145 C131.804289,228.087179 133.825418,229.236346 135.616068,227.942781 C137.158509,226.721415 138.819145,224.898391 138.878242,222.852753 C135.704714,215.470407 131.934303,208.364824 128.524386,201.090777 C127.53155,199.273769 129.883625,198.756343 131.183767,199.099288 C134.109086,199.279785 134.68233,202.643055 135.852458,204.772925 C137.631288,209.351543 140.012911,213.653399 141.844929,218.213968 C144.72297,212.185353 147.092774,205.928108 150.012183,199.92356 Z"/>
</svg>
